src/basic/800/u2913-download.svg

<svg width="15" height="16" viewBox="0 0 15 16" fill="none" xmlns="http://www.w3.org/2000/svg">
<path fill-rule="evenodd" clip-rule="evenodd" d="M14,14h-13v-1h13zM7.00002,10.2929v-10.2929h1v10.2929l5.14648,-5.14645l0.7071,0.7071l-6.00002,6.00005l-0.35356,0.3535l-0.35355,-0.3535l-6,-6.00005l0.70711,-0.7071z" fill="black"/>
</svg>

<svg width="15" height="16" viewBox="0 0 15 16" fill="none" xmlns="http://www.w3.org/2000/svg">
<path fill-rule="evenodd" clip-rule="evenodd" d="M14 14L1 14L1 13L14 13L14 14ZM7.00002 10.2929L7.00002 8.34739e-08L8.00002 7.1549e-08L8.00002 10.2929L13.1465 5.14645L13.8536 5.85355L7.85358 11.8536L7.50002 12.2071L7.14647 11.8536L1.14647 5.85355L1.85358 5.14645L7.00002 10.2929Z" fill="black"/>
</svg>
